packages/kaspersky-hexa-ui-icons/src/iconsSVGs/16/DropBoxColor.svg

<svg width="16" height="16" viewBox="0 0 16 16" fill="none" xmlns="http://www.w3.org/2000/svg">
<path d="M10.6281 1.86865L15.0076 4.49635L12.3799 6.24815L8.00037 3.62045L10.6281 1.86865Z" fill="#087BB5"/>
<path d="M3.62086 6.24815L8.00037 3.62045L5.37267 1.86865L0.993164 4.49635L3.62086 6.24815Z" fill="#087BB5"/>
<path d="M8.00037 8.87585L5.37267 10.6277L0.993164 7.99995L3.62086 6.24815L8.00037 8.87585Z" fill="#087BB5"/>
<path d="M8.00037 8.87585L10.6281 10.6277L15.0076 7.99995L12.3799 6.24815L8.00037 8.87585Z" fill="#087BB5"/>
<path d="M5.39764 11.6639L3.62086 10.5979V11.5036L8.00037 14.1313L12.3799 11.5036V10.5981L10.6035 11.6639L8.00058 9.92866L5.39764 11.6639Z" fill="#087BB5"/>
</svg>

<svg xmlns="http://www.w3.org/2000/svg" width="16" height="16" fill="none" viewBox="0 0 16 16"><path fill="#087bb5" d="m10.628 1.869 4.38 2.628-2.628 1.752-4.379-2.628zM3.621 6.248l4.38-2.628-2.628-1.752-4.38 2.628z"/><path fill="#087bb5" d="m8 8.876-2.628 1.752L.993 8l2.628-1.752zm0 0 2.628 1.752L15.008 8 12.38 6.248z"/><path fill="#087bb5" d="m5.3976 11.6639-1.7767-1.066v.9057l4.3795 2.6277 4.3795-2.6277v-.9055l-1.7764 1.0658-2.603-1.7352z"/></svg>
